X: 04034
T: HARRISVILLE HALL -Polka-
C: Bob McQuillen 26 April'78
B: Bob's Note Book 04 #34
R: polka
Z: 2020 John Chambers <jc:trillian.mit.edu>
M: C
L: 1/8
K: A
AF \
| E2A2 cBcd | c2A2 A2AF | E2AB c2ed |c2B2 B2e2 |\
| E2c2 cBcd | c2A2 A2F2 | E2AB cAB2 | A6 :|
|: cd \
| e2ef ecef | e2c2 c2cd | e2af e2c2 | BABc B2cd |\
| e2ef e2af | ecef e2ed | cBAc B2e2 | A6 :|
%%begintext align
%% Great Dances held in Clark Hall
%% in Harrisville, N.H. Much fun.
%%endtext

%%sep 1 1 500

%%sep 1 1 500

